symbols/web/offline_share/materialsymbolsoutlined/offline_share_wght700grad200fill1_40px.svg

<svg xmlns="http://www.w3.org/2000/svg" height="40" width="40"><path d="M16.625 32.833q-1.792 0-3.125-1.312-1.333-1.313-1.333-3.146V4.917q0-1.834 1.333-3.125Q14.833.5 16.625.5h13.5q1.75 0 3.063 1.292Q34.5 3.083 34.5 4.917v23.458q0 1.833-1.312 3.146-1.313 1.312-3.063 1.312Zm13.5-22.875h-13.5v13.375h13.5ZM28.542 39.5H9.917q-1.792 0-3.084-1.292-1.291-1.291-1.291-3.125V8.5h4.375v26.583h18.625Zm-9.625-18.417V17.5q0-.708.479-1.146.479-.437 1.146-.437h4.375l-1.792-1.792 1.25-1.25 3.917 3.917-3.917 3.958-1.25-1.25 1.792-1.792h-4.209v3.375Z"/></svg>

<svg xmlns="http://www.w3.org/2000/svg" height="40" width="40"><path d="M16.625 32.833Q14.833 32.833 13.5 31.521Q12.167 30.208 12.167 28.375V4.917Q12.167 3.083 13.5 1.792Q14.833 0.5 16.625 0.5H30.125Q31.875 0.5 33.188 1.792Q34.5 3.083 34.5 4.917V28.375Q34.5 30.208 33.188 31.521Q31.875 32.833 30.125 32.833ZM30.125 9.958H16.625V23.333H30.125ZM28.542 39.5H9.917Q8.125 39.5 6.833 38.208Q5.542 36.917 5.542 35.083V8.5H9.917V35.083Q9.917 35.083 9.917 35.083Q9.917 35.083 9.917 35.083H28.542ZM18.917 21.083V17.5Q18.917 16.792 19.396 16.354Q19.875 15.917 20.542 15.917H24.917L23.125 14.125L24.375 12.875L28.292 16.792L24.375 20.75L23.125 19.5L24.917 17.708H20.708V21.083Z"/></svg>
